X: 40
T:Maggie Pickens
% Nottingham Music Database
S:McCusker Brothers
%P:AAB
M:4/4
L:1/8
R:Hornpipe
K:G
P:A
GA|:"G"GEDE GAB2|"C"(3cBABG AGE2|"G"GEDE GAB2|"G"dedB "D"A2"G"G2:|
P:B
"G"Bdge dcB2|"G"dedB "Em"AGE2|"G"Bdge dcB2|"G"GABG "D"A2"G"G2|
"G"gage dcB2|"G"dedB "Em"AGE2|"G"gage dcB2|"G"gdBG "D"A2"G"G2||<end>
<start>
